images/50515655.svg

<?xml version="1.0" encoding="UTF-8"?>
<svg xmlns="http://www.w3.org/2000/svg" xmlns:xlink="http://www.w3.org/1999/xlink" width="300pt" height="300pt" viewBox="0 0 300 300" version="1.1">
<defs>
<g>
<symbol overflow="visible" id="glyph0-0">
<path style="stroke:none;" d="M 0.453125 1.59375 L 0.453125 -6.34375 L 4.953125 -6.34375 L 4.953125 1.59375 Z M 0.953125 1.09375 L 4.453125 1.09375 L 4.453125 -5.84375 L 0.953125 -5.84375 Z M 0.953125 1.09375 "/>
</symbol>
<symbol overflow="visible" id="glyph0-1">
<path style="stroke:none;" d="M 0.890625 -6.5625 L 4.65625 -6.5625 L 4.65625 -5.8125 L 1.765625 -5.8125 L 1.765625 -3.875 L 4.375 -3.875 L 4.375 -3.140625 L 1.765625 -3.140625 L 1.765625 0 L 0.890625 0 Z M 0.890625 -6.5625 "/>
</symbol>
<symbol overflow="visible" id="glyph0-2">
<path style="stroke:none;" d="M 0.890625 -6.5625 L 2.078125 -6.5625 L 4.984375 -1.078125 L 4.984375 -6.5625 L 5.84375 -6.5625 L 5.84375 0 L 4.65625 0 L 1.75 -5.484375 L 1.75 0 L 0.890625 0 Z M 0.890625 -6.5625 "/>
</symbol>
<symbol overflow="visible" id="glyph0-3">
<path style="stroke:none;" d="M 0.890625 -6.5625 L 1.765625 -6.5625 L 1.765625 -3.875 L 5 -3.875 L 5 -6.5625 L 5.890625 -6.5625 L 5.890625 0 L 5 0 L 5 -3.125 L 1.765625 -3.125 L 1.765625 0 L 0.890625 0 Z M 0.890625 -6.5625 "/>
</symbol>
<symbol overflow="visible" id="glyph0-4">
<path style="stroke:none;" d="M 3.546875 -5.953125 C 2.898438 -5.953125 2.382812 -5.710938 2 -5.234375 C 1.625 -4.753906 1.4375 -4.101562 1.4375 -3.28125 C 1.4375 -2.445312 1.625 -1.789062 2 -1.3125 C 2.382812 -0.832031 2.898438 -0.59375 3.546875 -0.59375 C 4.191406 -0.59375 4.703125 -0.832031 5.078125 -1.3125 C 5.453125 -1.789062 5.640625 -2.445312 5.640625 -3.28125 C 5.640625 -4.101562 5.453125 -4.753906 5.078125 -5.234375 C 4.703125 -5.710938 4.191406 -5.953125 3.546875 -5.953125 Z M 3.546875 -6.6875 C 4.460938 -6.6875 5.195312 -6.375 5.75 -5.75 C 6.300781 -5.132812 6.578125 -4.3125 6.578125 -3.28125 C 6.578125 -2.238281 6.300781 -1.410156 5.75 -0.796875 C 5.195312 -0.179688 4.460938 0.125 3.546875 0.125 C 2.617188 0.125 1.878906 -0.179688 1.328125 -0.796875 C 0.773438 -1.410156 0.5 -2.238281 0.5 -3.28125 C 0.5 -4.3125 0.773438 -5.132812 1.328125 -5.75 C 1.878906 -6.375 2.617188 -6.6875 3.546875 -6.6875 Z M 3.546875 -6.6875 "/>
</symbol>
</g>
</defs>
<g id="surface11153">
<rect x="0" y="0" width="300" height="300" style="fill:rgb(100%,100%,100%);fill-opacity:1;stroke:none;"/>
<path style="fill:none;stroke-width:1.2;stroke-linecap:butt;stroke-linejoin:miter;stroke:rgb(20%,80%,80%);stroke-opacity:1;stroke-miterlimit:10;" d="M 260.195312 193.378906 L 255.269531 182.21875 "/>
<path style="fill:none;stroke-width:1.2;stroke-linecap:butt;stroke-linejoin:miter;stroke:rgb(0%,0%,0%);stroke-opacity:1;stroke-miterlimit:10;" d="M 255.269531 182.21875 L 250.34375 171.054688 "/>
<path style=" stroke:none;fill-rule:nonzero;fill:rgb(100%,100%,100%);fill-opacity:1;" d="M 257.195312 187.878906 L 263.195312 187.878906 L 263.195312 198.878906 L 257.195312 198.878906 Z M 257.195312 187.878906 "/>
<g style="fill:rgb(20%,80%,80%);fill-opacity:1;">
  <use xlink:href="#glyph0-1" x="257.195312" y="196.541992"/>
</g>
<path style="fill:none;stroke-width:1.2;stroke-linecap:butt;stroke-linejoin:miter;stroke:rgb(0%,0%,0%);stroke-opacity:1;stroke-miterlimit:10;" d="M 250.34375 171.054688 L 226.082031 168.425781 "/>
<path style="fill:none;stroke-width:1.2;stroke-linecap:butt;stroke-linejoin:miter;stroke:rgb(0%,0%,0%);stroke-opacity:1;stroke-miterlimit:10;" d="M 248.535156 165.085938 L 229.128906 162.980469 "/>
<path style="fill:none;stroke-width:1.2;stroke-linecap:butt;stroke-linejoin:miter;stroke:rgb(0%,0%,0%);stroke-opacity:1;stroke-miterlimit:10;" d="M 264.75 151.359375 L 250.34375 171.054688 "/>
<path style="fill:none;stroke-width:1.2;stroke-linecap:butt;stroke-linejoin:miter;stroke:rgb(0%,0%,0%);stroke-opacity:1;stroke-miterlimit:10;" d="M 226.082031 168.425781 L 216.230469 146.101562 "/>
<path style="fill:none;stroke-width:1.2;stroke-linecap:butt;stroke-linejoin:miter;stroke:rgb(0%,0%,0%);stroke-opacity:1;stroke-miterlimit:10;" d="M 216.230469 146.101562 L 230.636719 126.40625 "/>
<path style="fill:none;stroke-width:1.2;stroke-linecap:butt;stroke-linejoin:miter;stroke:rgb(0%,0%,0%);stroke-opacity:1;stroke-miterlimit:10;" d="M 213.039062 140.742188 L 224.5625 124.988281 "/>
<path style="fill:none;stroke-width:1.2;stroke-linecap:butt;stroke-linejoin:miter;stroke:rgb(0%,0%,0%);stroke-opacity:1;stroke-miterlimit:10;" d="M 193.046875 138.488281 L 216.230469 146.101562 "/>
<path style="fill:none;stroke-width:1.2;stroke-linecap:butt;stroke-linejoin:miter;stroke:rgb(0%,0%,0%);stroke-opacity:1;stroke-miterlimit:10;" d="M 230.636719 126.40625 L 223.496094 116.515625 "/>
<path style="fill:none;stroke-width:1.2;stroke-linecap:butt;stroke-linejoin:miter;stroke:rgb(0%,0%,100%);stroke-opacity:1;stroke-miterlimit:10;" d="M 223.496094 116.515625 L 216.359375 106.621094 "/>
<path style="fill:none;stroke-width:1.2;stroke-linecap:butt;stroke-linejoin:miter;stroke:rgb(0%,0%,0%);stroke-opacity:1;stroke-miterlimit:10;" d="M 230.636719 126.40625 L 254.898438 129.035156 "/>
<path style="fill:none;stroke-width:1.2;stroke-linecap:butt;stroke-linejoin:miter;stroke:rgb(0%,0%,100%);stroke-opacity:1;stroke-miterlimit:10;" d="M 216.359375 106.621094 L 204.742188 110.351562 "/>
<path style="fill:none;stroke-width:1.2;stroke-linecap:butt;stroke-linejoin:miter;stroke:rgb(0%,0%,0%);stroke-opacity:1;stroke-miterlimit:10;" d="M 204.742188 110.351562 L 193.125 114.085938 "/>
<path style=" stroke:none;fill-rule:nonzero;fill:rgb(100%,100%,100%);fill-opacity:1;" d="M 209.359375 101.121094 L 223.359375 101.121094 L 223.359375 112.121094 L 209.359375 112.121094 Z M 209.359375 101.121094 "/>
<g style="fill:rgb(0%,0%,100%);fill-opacity:1;">
  <use xlink:href="#glyph0-2" x="209.359375" y="109.78418"/>
  <use xlink:href="#glyph0-3" x="216.336914" y="109.78418"/>
</g>
<path style="fill:none;stroke-width:1.2;stroke-linecap:butt;stroke-linejoin:miter;stroke:rgb(0%,0%,0%);stroke-opacity:1;stroke-miterlimit:10;" d="M 193.125 114.085938 L 193.046875 138.488281 "/>
<path style="fill:none;stroke-width:1.2;stroke-linecap:butt;stroke-linejoin:miter;stroke:rgb(0%,0%,0%);stroke-opacity:1;stroke-miterlimit:10;" d="M 198.859375 116.542969 L 198.796875 136.066406 "/>
<path style="fill:none;stroke-width:1.2;stroke-linecap:butt;stroke-linejoin:miter;stroke:rgb(0%,0%,0%);stroke-opacity:1;stroke-miterlimit:10;" d="M 193.046875 138.488281 L 173.261719 152.765625 "/>
<path style="fill:none;stroke-width:1.2;stroke-linecap:butt;stroke-linejoin:miter;stroke:rgb(0%,0%,0%);stroke-opacity:1;stroke-miterlimit:10;" d="M 170.402344 153.058594 L 171.640625 165.195312 "/>
<path style="fill:none;stroke-width:1.2;stroke-linecap:butt;stroke-linejoin:miter;stroke:rgb(100%,0%,0%);stroke-opacity:1;stroke-miterlimit:10;" d="M 171.640625 165.195312 L 172.875 177.332031 "/>
<path style="fill:none;stroke-width:1.2;stroke-linecap:butt;stroke-linejoin:miter;stroke:rgb(0%,0%,0%);stroke-opacity:1;stroke-miterlimit:10;" d="M 176.117188 152.476562 L 177.351562 164.613281 "/>
<path style="fill:none;stroke-width:1.2;stroke-linecap:butt;stroke-linejoin:miter;stroke:rgb(100%,0%,0%);stroke-opacity:1;stroke-miterlimit:10;" d="M 177.351562 164.613281 L 178.589844 176.75 "/>
<path style="fill:none;stroke-width:1.2;stroke-linecap:butt;stroke-linejoin:miter;stroke:rgb(0%,0%,0%);stroke-opacity:1;stroke-miterlimit:10;" d="M 173.261719 152.765625 L 151 142.769531 "/>
<path style=" stroke:none;fill-rule:nonzero;fill:rgb(100%,100%,100%);fill-opacity:1;" d="M 171.730469 171.542969 L 179.730469 171.542969 L 179.730469 182.542969 L 171.730469 182.542969 Z M 171.730469 171.542969 "/>
<g style="fill:rgb(100%,0%,0%);fill-opacity:1;">
  <use xlink:href="#glyph0-4" x="171.730469" y="180.206055"/>
</g>
<path style="fill:none;stroke-width:1.2;stroke-linecap:butt;stroke-linejoin:miter;stroke:rgb(0%,0%,0%);stroke-opacity:1;stroke-miterlimit:10;" d="M 153.855469 142.476562 L 152.621094 130.339844 "/>
<path style="fill:none;stroke-width:1.2;stroke-linecap:butt;stroke-linejoin:miter;stroke:rgb(100%,0%,0%);stroke-opacity:1;stroke-miterlimit:10;" d="M 152.621094 130.339844 L 151.382812 118.203125 "/>
<path style="fill:none;stroke-width:1.2;stroke-linecap:butt;stroke-linejoin:miter;stroke:rgb(0%,0%,0%);stroke-opacity:1;stroke-miterlimit:10;" d="M 148.144531 143.058594 L 146.90625 130.921875 "/>
<path style="fill:none;stroke-width:1.2;stroke-linecap:butt;stroke-linejoin:miter;stroke:rgb(100%,0%,0%);stroke-opacity:1;stroke-miterlimit:10;" d="M 146.90625 130.921875 L 145.671875 118.78125 "/>
<path style="fill:none;stroke-width:1.2;stroke-linecap:butt;stroke-linejoin:miter;stroke:rgb(0%,0%,0%);stroke-opacity:1;stroke-miterlimit:10;" d="M 151 142.769531 L 141.105469 149.90625 "/>
<path style="fill:none;stroke-width:1.2;stroke-linecap:butt;stroke-linejoin:miter;stroke:rgb(0%,0%,100%);stroke-opacity:1;stroke-miterlimit:10;" d="M 141.105469 149.90625 L 131.210938 157.046875 "/>
<path style=" stroke:none;fill-rule:nonzero;fill:rgb(100%,100%,100%);fill-opacity:1;" d="M 144.527344 112.992188 L 152.527344 112.992188 L 152.527344 123.992188 L 144.527344 123.992188 Z M 144.527344 112.992188 "/>
<g style="fill:rgb(100%,0%,0%);fill-opacity:1;">
  <use xlink:href="#glyph0-4" x="144.527344" y="121.655273"/>
</g>
<path style="fill:none;stroke-width:1.2;stroke-linecap:butt;stroke-linejoin:miter;stroke:rgb(0%,0%,100%);stroke-opacity:1;stroke-miterlimit:10;" d="M 131.210938 157.046875 L 131.171875 169.25 "/>
<path style="fill:none;stroke-width:1.2;stroke-linecap:butt;stroke-linejoin:miter;stroke:rgb(0%,0%,0%);stroke-opacity:1;stroke-miterlimit:10;" d="M 131.171875 169.25 L 131.132812 181.449219 "/>
<path style="fill:none;stroke-width:1.2;stroke-linecap:butt;stroke-linejoin:miter;stroke:rgb(0%,0%,0%);stroke-opacity:1;stroke-miterlimit:10;" d="M 108.027344 149.433594 L 119.621094 153.238281 "/>
<path style="fill:none;stroke-width:1.2;stroke-linecap:butt;stroke-linejoin:miter;stroke:rgb(0%,0%,100%);stroke-opacity:1;stroke-miterlimit:10;" d="M 119.621094 153.238281 L 131.210938 157.046875 "/>
<path style=" stroke:none;fill-rule:nonzero;fill:rgb(100%,100%,100%);fill-opacity:1;" d="M 128.210938 151.546875 L 135.210938 151.546875 L 135.210938 162.546875 L 128.210938 162.546875 Z M 128.210938 151.546875 "/>
<g style="fill:rgb(0%,0%,100%);fill-opacity:1;">
  <use xlink:href="#glyph0-2" x="128.210938" y="160.209961"/>
</g>
<path style="fill:none;stroke-width:1.2;stroke-linecap:butt;stroke-linejoin:miter;stroke:rgb(0%,0%,0%);stroke-opacity:1;stroke-miterlimit:10;" d="M 131.132812 181.449219 L 107.902344 188.914062 "/>
<path style="fill:none;stroke-width:1.2;stroke-linecap:butt;stroke-linejoin:miter;stroke:rgb(0%,0%,0%);stroke-opacity:1;stroke-miterlimit:10;" d="M 107.902344 188.914062 L 93.621094 169.125 "/>
<path style="fill:none;stroke-width:1.2;stroke-linecap:butt;stroke-linejoin:miter;stroke:rgb(0%,0%,0%);stroke-opacity:1;stroke-miterlimit:10;" d="M 93.621094 169.125 L 69.363281 166.496094 "/>
<path style="fill:none;stroke-width:1.2;stroke-linecap:butt;stroke-linejoin:miter;stroke:rgb(0%,0%,0%);stroke-opacity:1;stroke-miterlimit:10;" d="M 91.816406 163.15625 L 72.40625 161.050781 "/>
<path style="fill:none;stroke-width:1.2;stroke-linecap:butt;stroke-linejoin:miter;stroke:rgb(0%,0%,0%);stroke-opacity:1;stroke-miterlimit:10;" d="M 108.027344 149.433594 L 93.621094 169.125 "/>
<path style="fill:none;stroke-width:1.2;stroke-linecap:butt;stroke-linejoin:miter;stroke:rgb(0%,0%,0%);stroke-opacity:1;stroke-miterlimit:10;" d="M 69.363281 166.496094 L 59.507812 144.171875 "/>
<path style="fill:none;stroke-width:1.2;stroke-linecap:butt;stroke-linejoin:miter;stroke:rgb(0%,0%,0%);stroke-opacity:1;stroke-miterlimit:10;" d="M 59.507812 144.171875 L 47.378906 142.859375 "/>
<path style="fill:none;stroke-width:1.2;stroke-linecap:butt;stroke-linejoin:miter;stroke:rgb(20%,80%,80%);stroke-opacity:1;stroke-miterlimit:10;" d="M 47.378906 142.859375 L 35.25 141.542969 "/>
<path style="fill:none;stroke-width:1.2;stroke-linecap:butt;stroke-linejoin:miter;stroke:rgb(0%,0%,0%);stroke-opacity:1;stroke-miterlimit:10;" d="M 59.507812 144.171875 L 73.917969 124.476562 "/>
<path style="fill:none;stroke-width:1.2;stroke-linecap:butt;stroke-linejoin:miter;stroke:rgb(0%,0%,0%);stroke-opacity:1;stroke-miterlimit:10;" d="M 65.585938 145.59375 L 77.109375 129.835938 "/>
<path style=" stroke:none;fill-rule:nonzero;fill:rgb(100%,100%,100%);fill-opacity:1;" d="M 29.25 136.042969 L 35.25 136.042969 L 35.25 147.042969 L 29.25 147.042969 Z M 29.25 136.042969 "/>
<g style="fill:rgb(20%,80%,80%);fill-opacity:1;">
  <use xlink:href="#glyph0-1" x="29.25" y="144.706055"/>
</g>
<path style="fill:none;stroke-width:1.2;stroke-linecap:butt;stroke-linejoin:miter;stroke:rgb(0%,0%,0%);stroke-opacity:1;stroke-miterlimit:10;" d="M 73.917969 124.476562 L 98.175781 127.109375 "/>
<path style="fill:none;stroke-width:1.2;stroke-linecap:butt;stroke-linejoin:miter;stroke:rgb(0%,0%,0%);stroke-opacity:1;stroke-miterlimit:10;" d="M 98.175781 127.109375 L 108.027344 149.433594 "/>
<path style="fill:none;stroke-width:1.2;stroke-linecap:butt;stroke-linejoin:miter;stroke:rgb(0%,0%,0%);stroke-opacity:1;stroke-miterlimit:10;" d="M 93.910156 131.660156 L 101.792969 149.519531 "/>
<path style="fill:none;stroke-width:1.2;stroke-linecap:butt;stroke-linejoin:miter;stroke:rgb(0%,0%,0%);stroke-opacity:1;stroke-miterlimit:10;" d="M 254.898438 129.035156 L 264.75 151.359375 "/>
<path style="fill:none;stroke-width:1.2;stroke-linecap:butt;stroke-linejoin:miter;stroke:rgb(0%,0%,0%);stroke-opacity:1;stroke-miterlimit:10;" d="M 250.628906 133.585938 L 258.511719 151.445312 "/>
</g>
</svg>

<svg xmlns="http://www.w3.org/2000/svg" xmlns:xlink="http://www.w3.org/1999/xlink" width="300pt" height="300pt" viewBox="0 0 300 300"><defs><symbol overflow="visible"><path d="M.453 1.594v-7.938h4.5v7.938zm.5-.5h3.5v-6.938h-3.5zm0 0"/></symbol><symbol overflow="visible" id="a"><path d="M.89-6.563h3.766v.75h-2.89v1.938h2.61v.734h-2.61V0H.89zm0 0"/></symbol><symbol overflow="visible" id="b"><path d="M.89-6.563H2.08l2.906 5.485v-5.484h.86V0H4.656L1.75-5.484V0H.89zm0 0"/></symbol><symbol overflow="visible" id="c"><path d="M.89-6.563h.876v2.688H5v-2.688h.89V0H5v-3.125H1.766V0H.89zm0 0"/></symbol><symbol overflow="visible" id="d"><path d="M3.547-5.953c-.65 0-1.164.242-1.547.72-.375.48-.563 1.13-.563 1.952 0 .835.188 1.49.563 1.967.383.48.898.72 1.547.72.644 0 1.156-.24 1.53-.72.376-.476.564-1.132.564-1.968 0-.822-.187-1.474-.562-1.954-.375-.477-.887-.72-1.53-.72zm0-.734c.914 0 1.648.312 2.203.937.55.617.828 1.438.828 2.47 0 1.042-.277 1.87-.828 2.483-.555.617-1.29.922-2.203.922-.93 0-1.668-.305-2.22-.922C.774-1.41.5-2.237.5-3.28c0-1.033.273-1.853.828-2.47.55-.625 1.29-.938 2.22-.938zm0 0"/></symbol></defs><g><path fill="#fff" d="M0 0h300v300H0z"/><path d="M260.195 193.38l-4.925-11.16" stroke-width="1.2" stroke="#3cc" stroke-miterlimit="10" fill="none"/><path d="M255.27 182.22l-4.926-11.165" stroke-width="1.2" stroke="#000" stroke-miterlimit="10" fill="none"/><path d="M257.195 187.88h6v11h-6zm0 0" fill="#fff"/><use xlink:href="#a" x="257.195" y="196.542" fill="#3cc"/><path d="M250.344 171.055l-24.262-2.63M248.535 165.086l-19.406-2.106M264.75 151.36l-14.406 19.695M226.082 168.426l-9.852-22.324M216.23 146.102l14.407-19.696M213.04 140.742l11.523-15.754M193.047 138.488l23.183 7.614M230.637 126.406l-7.14-9.89" stroke-width="1.2" stroke="#000" stroke-miterlimit="10" fill="none"/><path d="M223.496 116.516l-7.137-9.895" stroke-width="1.2" stroke="#00f" stroke-miterlimit="10" fill="none"/><path d="M230.637 126.406l24.26 2.63" stroke-width="1.2" stroke="#000" stroke-miterlimit="10" fill="none"/><path d="M216.36 106.62l-11.618 3.732" stroke-width="1.2" stroke="#00f" stroke-miterlimit="10" fill="none"/><path d="M204.742 110.352l-11.617 3.734" stroke-width="1.2" stroke="#000" stroke-miterlimit="10" fill="none"/><path d="M209.36 101.12h14v11h-14zm0 0" fill="#fff"/><g fill="#00f"><use xlink:href="#b" x="209.359" y="109.784"/><use xlink:href="#c" x="216.337" y="109.784"/></g><path d="M193.125 114.086l-.078 24.402M198.86 116.543l-.063 19.523M193.047 138.488l-19.785 14.278M170.402 153.06l1.24 12.135" stroke-width="1.2" stroke="#000" stroke-miterlimit="10" fill="none"/><path d="M171.64 165.195l1.235 12.137" stroke-width="1.2" stroke="#f00" stroke-miterlimit="10" fill="none"/><path d="M176.117 152.477l1.235 12.136" stroke-width="1.2" stroke="#000" stroke-miterlimit="10" fill="none"/><path d="M177.352 164.613l1.238 12.137" stroke-width="1.2" stroke="#f00" stroke-miterlimit="10" fill="none"/><path d="M173.262 152.766L151 142.77" stroke-width="1.2" stroke="#000" stroke-miterlimit="10" fill="none"/><path d="M171.73 171.543h8v11h-8zm0 0" fill="#fff"/><use xlink:href="#d" x="171.73" y="180.206" fill="#f00"/><path d="M153.855 142.477l-1.234-12.137" stroke-width="1.2" stroke="#000" stroke-miterlimit="10" fill="none"/><path d="M152.62 130.34l-1.237-12.137" stroke-width="1.2" stroke="#f00" stroke-miterlimit="10" fill="none"/><path d="M148.145 143.06l-1.24-12.138" stroke-width="1.2" stroke="#000" stroke-miterlimit="10" fill="none"/><path d="M146.906 130.922l-1.234-12.14" stroke-width="1.2" stroke="#f00" stroke-miterlimit="10" fill="none"/><path d="M151 142.77l-9.895 7.136" stroke-width="1.2" stroke="#000" stroke-miterlimit="10" fill="none"/><path d="M141.105 149.906l-9.894 7.14" stroke-width="1.2" stroke="#00f" stroke-miterlimit="10" fill="none"/><path d="M144.527 112.992h8v11h-8zm0 0" fill="#fff"/><use xlink:href="#d" x="144.527" y="121.655" fill="#f00"/><path d="M131.21 157.047l-.038 12.203" stroke-width="1.2" stroke="#00f" stroke-miterlimit="10" fill="none"/><path d="M131.172 169.25l-.04 12.2M108.027 149.434l11.594 3.804" stroke-width="1.2" stroke="#000" stroke-miterlimit="10" fill="none"/><path d="M119.62 153.238l11.59 3.81" stroke-width="1.2" stroke="#00f" stroke-miterlimit="10" fill="none"/><path d="M128.21 151.547h7v11h-7zm0 0" fill="#fff"/><use xlink:href="#b" x="128.211" y="160.21" fill="#00f"/><path d="M131.133 181.45l-23.23 7.464M107.902 188.914l-14.28-19.79M93.62 169.125l-24.257-2.63M91.816 163.156l-19.41-2.105M108.027 149.434l-14.406 19.69M69.363 166.496l-9.855-22.324M59.508 144.172l-12.13-1.313" stroke-width="1.2" stroke="#000" stroke-miterlimit="10" fill="none"/><path d="M47.38 142.86l-12.13-1.317" stroke-width="1.2" stroke="#3cc" stroke-miterlimit="10" fill="none"/><path d="M59.508 144.172l14.41-19.695M65.586 145.594l11.523-15.758" stroke-width="1.2" stroke="#000" stroke-miterlimit="10" fill="none"/><path d="M29.25 136.043h6v11h-6zm0 0" fill="#fff"/><use xlink:href="#a" x="29.25" y="144.706" fill="#3cc"/><path d="M73.918 124.477l24.258 2.632M98.176 127.11l9.85 22.324M93.91 131.66l7.883 17.86M254.898 129.035l9.852 22.324M250.63 133.586l7.882 17.86" stroke-width="1.2" stroke="#000" stroke-miterlimit="10" fill="none"/></g></svg>
